images/yt.svg

<svg width="37" height="37" viewBox="0 0 37 37" fill="none" xmlns="http://www.w3.org/2000/svg">
<path d="M21.2352 17.736L16.9779 15.7655C16.6064 15.5944 16.3012 15.7862 16.3012 16.1942V19.9058C16.3012 20.3138 16.6064 20.5056 16.9779 20.3345L21.2333 18.364C21.6067 18.191 21.6067 17.909 21.2352 17.736ZM18.1967 0C8.14682 0 0 8.08113 0 18.05C0 28.0189 8.14682 36.1 18.1967 36.1C28.2466 36.1 36.3934 28.0189 36.3934 18.05C36.3934 8.08113 28.2466 0 18.1967 0ZM18.1967 25.3828C8.88228 25.3828 8.71926 24.5499 8.71926 18.05C8.71926 11.5501 8.88228 10.7172 18.1967 10.7172C27.5112 10.7172 27.6742 11.5501 27.6742 18.05C27.6742 24.5499 27.5112 25.3828 18.1967 25.3828Z" fill="white"/>
</svg>

<svg xmlns="http://www.w3.org/2000/svg" width="37" height="37" fill="none" viewBox="0 0 37 37"><path fill="#fff" d="m21.235 17.736-4.257-1.97c-.372-.172-.677.02-.677.428v3.712c0 .408.305.6.677.428l4.255-1.97c.374-.173.374-.455.002-.628M18.197 0C8.147 0 0 8.081 0 18.05S8.147 36.1 18.197 36.1s18.196-8.081 18.196-18.05S28.247 0 18.197 0m0 25.383c-9.315 0-9.478-.833-9.478-7.333s.163-7.333 9.478-7.333 9.477.833 9.477 7.333-.163 7.333-9.477 7.333"/></svg>
